X:1
T:How Precious Is the Book Divine
T:How Precious Is the Book Divine
T:Fred C. Pullin, 1903
T:John Fawcett, 1782
T:Public Domain Courtesy of the Cyber Hymnal™
T:Public Domain Courtesy of the Cyber Hymnal™
C:Fred C. Pullin, 1903
Z:Public Domain
Z:Courtesy of the Cyber Hymnal™
%%score ( 1 2 ) ( 3 4 )
L:1/8
M:6/8
K:Ab
V:1 treble 
V:2 treble 
V:3 bass 
V:4 bass 
V:1
 E | [CE]2 [Ec] ([DB][Ec])[DB] | [CA]2 [CE] [CE]2 [CE] | [DF]2 [DF] [EF]2 [EF] | [DF]3- [DF]2 F | %5
w: 1.~How|pre- cious is * the|book di- vine, By|in- spir- a- tion|giv’n; * Bright|
w: 2.~It|shows to man * his|wand- ’ring ways, And|where his feet have|trod; * And|
w: 3.~It|sweet- ly cheers * our|faint- ing hearts In|this dark vale of|tears; * Life,|
 [DF]2 [Fd] (cd)[Ec] | [DB]2 [DF] [DF]2 [DF] | [=DB]2 [Dc] [DB]2 [DF] | [DB]3- [DB]2 [DE] | %9
w: as a lamp * its|pag- es shine To|guide our souls to|Heav’n. * Its|
w: brings to view * the|match- less grace Of|a for- giv- ing|God. * O’er|
w: light and joy * it|still im- parts, And|quells our ris- ing|fears. * This|
 [CE]2 [Ec] ([DB][Ec])[DB] | [CA]2 [CE] [CE]2 [CE] | [DF]2 [DF] [EF]2 [EF] | [DF]3- [DF]2 F | %13
w: light de- scend- * ing|from a- bove, Our|gloom- y world to|cheer, * Dis-|
w: all the straight * and|nar- row way Its|rad- iant beams are|cast; * A|
w: lamp, through all * the|ted- ious night Of|life, shall guide our|way, * Till|
 [FA]2 [FA] (AG)[=FA] | [Ee]2 [Ec] [EA]2 E | ([DF][EG])[EA] [DB]2 [Ec] | [CA]3- [CA]2 || %17
w: plays a Sav- * ior’s|bound- less love, And|brings * His glor- ies|near. *|
w: light whose nev- * er|wear- y ray Grows|bright- * est at the|last. *|
w: we be- hold * the|clear- er light Of|an * e- ter- nal|day. *|
"^Refrain" E | [Ec]2 [Ec] (Bc)[EB] | [Ee]2 [Ec] (Bc)[EB] | [EA]2 [CE] [DF]2 [DA] | %21
w: ||||
w: ||||
w: ||||
 [CE]3- [CE]2 [CE] | [DF]2 [DF] [EA]2 [EA] | [Ed]2 [Ed] [Ec]2 [Ec] | (cB)[_DA] [DG]2 [DA] | %25
w: ||||
w: ||||
w: ||||
 [DB]3- [DB]2 E | [Ec]2 [Ec] (Bc)[EB] | [Ee]2 [Ec] (Bc)[EB] | [EA]2 [CE] [DF]2 [FA] | %29
w: ||||
w: ||||
w: ||||
 [=Ec]3- [Ec]2 [Ec] | [Fd]2 [DF] (FG)[DA] | [Cc]2 [CE] ([CE][=B,=D])[CE] | %32
w: |||
w: |||
w: |||
 ([DF][EG])[EA] [DB]2 [Ec] | [CA]4- [CA] |] %34
w: ||
w: ||
w: ||
V:2
 E | x6 | x6 | x6 | x6 | x3 E2 x | x6 | x6 | x6 | x6 | x6 | x6 | x5 F | x3 _F2 x | x5 E | x6 | %16
 x5 || E | x3 E2 x | x3 E2 x | x6 | x6 | x6 | x6 | =D2 x4 | x6 | x3 E2 x | x3 E2 x | x6 | x6 | %30
 x3 D2 x | x6 | x6 | x5 |] %34
V:3
 E, | [A,,E,]2 [A,,E,] [A,,F,]2 [A,,G,] | [A,,A,]2 [A,,A,] [A,,A,]2 [A,,A,] | %3
w: ~|~ ~ ~ ~|~ ~ ~ ~|
 [D,A,]2 [D,A,] [C,=A,]2 [C,A,] | [B,,B,]3- [B,,B,]2 F, | [B,,F,]2 [B,,B,] [F,=A,]2 [F,A,] | %6
w: ~ ~ ~ ~|~ * ~|~ ~ ~ ~|
 [B,,B,]2 [B,,B,] [B,,B,]2 [B,,B,] | [B,,F,]2 [B,,F,] [B,,A,]2 [B,,A,] | [E,G,]3- [E,G,]2 [E,G,] | %9
w: ~ ~ ~ ~|~ ~ ~ ~|~ * ~|
 [A,,A,]2 [A,,E,] [A,,F,]2 [A,,G,] | [A,,A,]2 [A,,A,] [A,,A,]2 [A,,A,] | %11
w: ~ ~ ~ ~|~ ~ ~ ~|
 [D,A,]2 [D,A,] [C,=A,]2 [C,A,] | [B,,B,]3- [B,,B,]2 F, | [D,D]2 [D,D] [D,A,]2 [D,A,] | %14
w: ~ ~ ~ ~|~ * ~|~ ~ ~ ~|
 [C,A,]2 [A,,A,] [C,A,]2 [C,A,] | (A,B,)[C,A,] [E,G,]2 [E,G,] | [A,,A,]3- [A,,A,]2 || E, | %18
w: ~ ~ ~ ~|~ * ~ ~ ~|~ *|Oh|
 [A,,A,]2 [C,A,] [E,G,]2 [D,G,] | [C,A,]2 [A,,A,] [E,G,]2 [D,G,] | [C,A,]2 [A,,A,] [D,A,]2 [F,A,] | %21
w: pre- cious book of|light and life Thou|source of truth and|
 A,3- A,2 [A,,A,] | [D,A,]2 [D,A,] [C,A,]2 [C,A,] | [B,,G,]2 [B,,G,] [A,,A,]2 [A,,A,] | %24
w: love, * In|Thee we view God’s|match- less grace, And|
 [B,,F,]2 [B,,F,] [B,,B,]2 [B,,F,] | [E,G,]3- [E,G,]2 E, | [A,,A,]2 [C,A,] [E,G,]2 [D,G,] | %27
w: all His good- ness|prove, * Oh|pre- cious book whose|
 [C,A,]2 [A,,A,] [E,G,]2 [D,G,] | [C,A,]2 [A,,A,] [D,A,]2 [D,F,] | [C,G,]3- [C,G,]2 [C,G,] | %30
w: light e’er shines With|bright and cheer- ing|ray, * To|
 [B,,B,]2 [B,,B,] [B,,B,]2 [B,,F,] | [E,A,]2 [E,A,] A,2 [E,A,] | (A,B,)[C,A,] [E,G,]2 [E,G,] | %33
w: guide our souls un-|til the dawn Of|the * e- ter- nal|
 [A,,A,]4- [A,,A,] |] %34
w: day. *|
V:4
 E, | x6 | x6 | x6 | x6 | x6 | x6 | x6 | x6 | x6 | x6 | x6 | x5 F, | x6 | x6 | D,2 x4 | x5 || E, | %18
 x6 | x6 | x6 | A,3- A,2 x | x6 | x6 | x6 | x6 | x6 | x6 | x6 | x6 | x6 | x3 (E,F,) x | D,2 x4 | %33
 x5 |] %34

